X: 253
P: Longways for as many as will
M: C|
L: 1/8
K: Bb
f2 |\
d2B2 F2A2 | B6 f2 | f2f2 gab2 | a6 g2 |\
f2d2 e2f2 | g2e2 c2g2 | _a2gf =efg=e | f6 |]\
f2 |\
g3f g2a2 | b2d2 d2d2 | g3a b2ag | ^f6 g2 |
g2d2 d2cd | e2c2 c2cd | ed cB A3G | G6 B2 |\
b2d2 g2c2 | f2B2 A2f2 |d2(dB) F2A2 | B6 |]

